src/components/connection-modal/icons/send-update-white.svg

<svg width="14" height="12" viewBox="0 0 14 12" fill="none" xmlns="http://www.w3.org/2000/svg">
    <path fill-rule="evenodd" clip-rule="evenodd"
        d="M10.4042 4.1111C11.1236 4.89094 11.496 6.03441 11.3014 7.17959C11.1075 8.48497 10.1426 9.73101 8.79602 10.2481H8.78756C8.37282 10.4091 8.1189 10.8499 8.22893 11.2992C8.33897 11.7823 8.82988 12.0875 9.31232 11.9773C11.3268 11.5111 13.0873 9.88359 13.7221 7.78142C14.0437 6.73796 14.086 5.60296 13.8499 4.50949C13.6467 3.5686 13.2151 2.67009 12.6141 1.89873L13.4605 1.05108C13.8406 0.661166 13.5706 0 13.0196 0L8.98308 0C8.64367 0 8.36436 0.279724 8.36436 0.618784V4.66207C8.36436 5.21304 9.02539 5.48429 9.41474 5.10285L10.4042 4.1111ZM3.59566 7.8889C2.87622 7.10906 2.50465 5.96474 2.69847 4.82041C2.89315 3.51503 3.85804 2.26814 5.20382 1.75192H5.21228C5.62702 1.59002 5.88094 1.15009 5.7709 0.700836C5.66087 0.216829 5.16996 -0.0874774 4.68751 0.022717C2.67308 0.488924 0.912573 2.11641 0.277773 4.21858C-0.0438585 5.26119 -0.0861788 6.39619 0.150813 7.48966C0.353949 8.4314 0.785612 9.32906 1.38656 10.1004L0.540157 10.9481C0.159277 11.338 0.430124 12 0.980284 12H5.01761C5.35617 12 5.63548 11.7203 5.63548 11.3804V7.33793C5.63548 6.78611 4.97529 6.51571 4.58595 6.89715L3.59566 7.8889Z"
        fill="white" />
</svg>

<svg width="14" height="12" fill="none" xmlns="http://www.w3.org/2000/svg"><path fill-rule="evenodd" clip-rule="evenodd" d="M10.404 4.111a3.66 3.66 0 0 1 .897 3.069c-.194 1.305-1.158 2.551-2.505 3.068h-.008a.901.901 0 0 0-.56 1.051c.111.483.602.789 1.084.678 2.015-.466 3.775-2.093 4.41-4.196a6.495 6.495 0 0 0 .128-3.272 6.517 6.517 0 0 0-1.236-2.61l.846-.848A.618.618 0 0 0 13.02 0H8.983c-.34 0-.619.28-.619.619v4.043c0 .551.661.822 1.05.44l.99-.99zM3.596 7.89a3.663 3.663 0 0 1-.898-3.069c.195-1.305 1.16-2.552 2.506-3.068h.008A.902.902 0 0 0 5.771.7.908.908 0 0 0 4.688.023C2.673.489.913 2.116.278 4.219a6.481 6.481 0 0 0-.127 3.27c.203.942.635 1.84 1.236 2.611l-.847.848C.16 11.338.43 12 .98 12h4.038c.338 0 .617-.28.617-.62V7.338a.617.617 0 0 0-1.049-.44l-.99.99z" fill="#fff"/></svg>
